Origami/64x64/apps/tomato.svg

<svg width="64" height="64" version="1" xmlns="http://www.w3.org/2000/svg">
 <path d="M 59.96,32.886 A 28,28 0 0 1 32,60.102 28,28 0 0 1 4.04,33.214 28,28 0 0 0 4,34 28,28 0 0 0 32,62 28,28 0 0 0 60,34 28,28 0 0 0 59.96,32.886 Z" style="opacity:.2"/>
 <circle cx="32" cy="33" r="28" style="fill:#e74c3c"/>
 <path d="m26.512 2.0018865c-0.18788 0.0077-0.37908 0.039706-0.56836 0.098514-1.00944 0.31366-1.56946 1.26434-1.25562 2.1314l0.78762 2.1762c-11.4162 1.067-17.476 12.746-17.476 12.746s3.8198 0.6966 13.0328-4.238c2.5598-1.37108 4.0356-2.8448 4.8778-4.1784-0.17408 1.37562-0.14856 3.1392 0.25782 5.3886 1.022 5.6498 5.286 9.8738 5.286 9.8738s5.1614-8.311-0.37326-16.457c8.164 5.377 20.92 3.0402 20.92 3.0402s-5.7146-5.2571995-11.7816-6.5675995c-4.5272-0.97782-8.695-0.33908-10.862 0.157222-0.0013-0.16057-0.02888-0.32302-0.08662-0.48242l-0.938-2.5912c-0.256-0.7044-1.006-1.1306-1.82-1.0974z" style="fill-rule:evenodd;opacity:.2"/>
 <path d="m26.512 1.0018865c-0.18788 0.0077-0.37908 0.039706-0.56836 0.098514-1.00944 0.31366-1.56946 1.26434-1.25562 2.1314l0.78762 2.1762c-11.4162 1.067-17.476 12.7468-17.476 12.7468s3.8198 0.6966 13.0328-4.238c2.5598-1.37108 4.0356-2.8448 4.8778-4.1783995-0.17408 1.3756195-0.14856 3.1391995 0.25782 5.3885995 1.022 5.649 5.286 9.873 5.286 9.873s5.1614-8.311-0.37326-16.457c8.164 5.3769995 20.92 3.0401995 20.92 3.0401995s-5.7146-5.9228-11.7816-7.2332c-4.5272-0.97782-8.695 0.3265205-10.862 0.8228225-0.0013-0.16057-0.02888-0.32302-0.08662-0.48242l-0.938-2.5912c-0.256-0.7044-1.006-1.13058-1.82-1.0974z" style="fill-rule:evenodd;fill:#a6ef4d"/>
 <path d="m26.511719 1.0019531c-0.18788 0.0077-0.37908 0.0388483-0.56836 0.0976563-1.00944 0.31366-1.569699 1.2657525-1.255859 2.1328125l0.003906 0.0078125c0.18109-0.5090216 0.629368-0.9471712 1.251953-1.140625 0.18928-0.058808 0.38048-0.0899563 0.56836-0.0976563 0.814-0.03318 1.564312 0.3932563 1.820312 1.0976563l0.939453 2.5898437c0.05774 0.1594 0.084638 0.3218519 0.085938 0.4824219 2.167-0.496302 6.334128-1.8000856 10.861328-0.8222656 4.67589 1.0099368 9.074496 4.6988006 10.876953 6.3652346 0.531373-0.073 0.904297-0.13086 0.904297-0.13086s-5.71425-5.9239746-11.78125-7.2343746c-4.5272-0.97782-8.694328 0.3259636-10.861328 0.8222656-0.0013-0.16057-0.028198-0.3230219-0.085938-0.4824219l-0.939453-2.5898437c-0.256-0.7044-1.006312-1.1308363-1.820312-1.0976563zm-1.382813 4.4492188c-11.189327 1.2700473-17.128906 12.703125-17.128906 12.703125s0.2751962 0.019377 0.578125 0.025391c1.684787-2.750772 7.410728-10.884729 16.898437-11.771485l-0.347656-0.9570312zm5.951172 4.0917969c1.846706 2.7180112 2.488803 5.4468242 2.542969 7.8867192 0.095625-2.224918-0.273076-4.751343-1.607422-7.31836-0.316894-0.1798623-0.630565-0.367491-0.935547-0.5683592zm-5.169922 1.1953122c-0.02493 0.039476-0.063791 0.081379-0.089844 0.121094-0.011744 0.301728-0.005512 0.632262 0.001954 0.964844 0.01599-0.386063 0.04514-0.748118 0.08789-1.085938z" style="fill-rule:evenodd;fill:#ffffff;opacity:.1"/>
</svg>

<svg xmlns="http://www.w3.org/2000/svg" width="64" height="64" version="1">
 <path style="opacity:0.2" d="M 59.96,32.886 A 28,28 0 0 1 32,60.102 28,28 0 0 1 4.04,33.214 28,28 0 0 0 4,34 28,28 0 0 0 32,62 28,28 0 0 0 60,34 28,28 0 0 0 59.96,32.886 Z"/>
 <circle style="fill:#e74c3c" cx="32" cy="33" r="28"/>
 <path style="opacity:0.2;fill-rule:evenodd" d="m 26.512,2.0018865 c -0.18788,0.0077 -0.37908,0.039706 -0.56836,0.098514 -1.00944,0.31366 -1.56946,1.26434 -1.25562,2.1314 l 0.78762,2.1762 C 14.05944,7.4750005 7.99964,19.154 7.99964,19.154 c 0,0 3.8198,0.6966 13.0328,-4.238 2.5598,-1.37108 4.0356,-2.8448 4.8778,-4.1784 -0.17408,1.37562 -0.14856,3.1392 0.25782,5.3886 1.022,5.6498 5.286,9.8738 5.286,9.8738 0,0 5.1614,-8.311 -0.37326,-16.457 8.164,5.377 20.92,3.0402 20.92,3.0402 0,0 -5.7146,-5.2571995 -11.7816,-6.5675995 -4.5272,-0.97782 -8.695,-0.33908 -10.862,0.157222 -0.0013,-0.16057 -0.02888,-0.32302 -0.08662,-0.48242 l -0.938,-2.5912 c -0.256,-0.7044 -1.006,-1.1306 -1.82,-1.0974 z"/>
 <path style="fill:#a6ef4d;fill-rule:evenodd" d="m 26.512,1.0018865 c -0.18788,0.0077 -0.37908,0.039706 -0.56836,0.098514 -1.00944,0.31366 -1.56946,1.26434 -1.25562,2.1314 l 0.78762,2.1762 c -11.4162,1.067 -17.476,12.7467995 -17.476,12.7467995 0,0 3.8198,0.6966 13.0328,-4.238 2.5598,-1.37108 4.0356,-2.8448 4.8778,-4.1783995 C 25.73616,11.11402 25.76168,12.8776 26.16806,15.127 c 1.022,5.649 5.286,9.873 5.286,9.873 0,0 5.1614,-8.311 -0.37326,-16.4569995 8.164,5.3769995 20.92,3.0401995 20.92,3.0401995 0,0 -5.7146,-5.9228 -11.7816,-7.2332 -4.5272,-0.97782 -8.695,0.3265205 -10.862,0.8228225 -0.0013,-0.16057 -0.02888,-0.32302 -0.08662,-0.48242 l -0.938,-2.5912 c -0.256,-0.7044 -1.006,-1.13058 -1.82,-1.0974 z"/>
 <path style="fill:#ffffff;fill-rule:evenodd;opacity:0.1" d="M 26.511719 1.0019531 C 26.323839 1.0096531 26.132639 1.0408014 25.943359 1.0996094 C 24.933919 1.4132694 24.37366 2.3653619 24.6875 3.2324219 L 24.691406 3.2402344 C 24.872496 2.7312128 25.320774 2.2930632 25.943359 2.0996094 C 26.132639 2.0408014 26.323839 2.0096531 26.511719 2.0019531 C 27.325719 1.9687731 28.076031 2.3952094 28.332031 3.0996094 L 29.271484 5.6894531 C 29.329224 5.8488531 29.356122 6.011305 29.357422 6.171875 C 31.524422 5.675573 35.69155 4.3717894 40.21875 5.3496094 C 44.89464 6.3595462 49.293246 10.04841 51.095703 11.714844 C 51.627076 11.641844 52 11.583984 52 11.583984 C 52 11.583984 46.28575 5.6600094 40.21875 4.3496094 C 35.69155 3.3717894 31.524422 4.675573 29.357422 5.171875 C 29.356122 5.011305 29.329224 4.8488531 29.271484 4.6894531 L 28.332031 2.0996094 C 28.076031 1.3952094 27.325719 0.96877313 26.511719 1.0019531 z M 25.128906 5.4511719 C 13.939579 6.7212192 8 18.154297 8 18.154297 C 8 18.154297 8.2751962 18.173674 8.578125 18.179688 C 10.262912 15.428916 15.988853 7.2949594 25.476562 6.4082031 L 25.128906 5.4511719 z M 31.080078 9.5429688 C 32.926784 12.26098 33.568881 14.989793 33.623047 17.429688 C 33.718672 15.20477 33.349971 12.678345 32.015625 10.111328 C 31.698731 9.9314657 31.38506 9.743837 31.080078 9.5429688 z M 25.910156 10.738281 C 25.885226 10.777757 25.846365 10.81966 25.820312 10.859375 C 25.808568 11.161103 25.8148 11.491637 25.822266 11.824219 C 25.838256 11.438156 25.867406 11.076101 25.910156 10.738281 z"/>
</svg>
